!!!COM: Charles Gounod
!!!CNT: Francais
!!!TXO: Francais
!!!OTL: Boire A L'Ombre
!!!LYR: E/mile Augier
!!!ENC: Jacob Pegg
!!!YOR: Romantic French Song 1830-1870 -David Tunley, ed.,
!!!YOR: New York: Garland Publishing, Inc., 1995, Vol. 5
!!!ODT: 1869/
!!NB: Vocal melody and text only encoded.
!!NB: First instance of melodic material only encoded.
**kern	**silbe
*clef G2	*
*k[b-]	*
*M3/4	*
*MM[moderato]	*
!!created: 6/5/03 21:51
!!proofed and posted: 6/6/03 9:55
=5	=5
4r	.
8r	.
{8f	{Je
8g	n'ai
8a	pas
=6	=6
8a	soif,
8g	viel-
4g}	-lard,}
8r	.
{8b-	{mer-
=7	=7
[4a	-ci!
8a]}	|}
8r	.
8r	.
{8cc	{mer-
=8	=8
[4b-	-ci!
8b-]}	|}
8r	.
{4b-	{Mon
=9	=9
4.b-	coeur
8dd	a
8cc	bien
8b-	au-
=10	=10
8b-	-tre
8a	sou-
8cc	-ci
8f	que
8g	la
8b-	bou-
=11	=11
(4a	-teil
2g)	|
=12	=12
4f}	-le!}
4r	.
{4a	{Toi,
=13	=13
8a	ce-
8g#	-pen-
4g#}	-dant,}
8r	.
{8bn	{pai-
=14	=14
8bn	-sible
8a	et
4a}	gai,}
8r	.
{8f#	{Tu
=15	=15
8f#	bois
8e	a\
[4e	l'ombre,
8e]	|
8dd	a\
=16	=16
8dd	pe-
8cc#	-tit
8cc#}	gue/,}
{8bn	{Sous
8bn	u-
8a	-ne
=17	=17
(4cc#	treil-
2bn)	|
=18	=18
4a}	-le!}
4r	.
{4cc#	{Tu
=19	=19
4.ee	ris
8cc#	au
8bn	go-
8g#	-be-
=20	=20
8bn	-let
8a	d'e/-
8a}	-tain}
8r	.
{4a	{Et
=21	=21
4cc#}	nul,}
8r	.
{8f#	{d'un
8g#	ju-
8a	-ge-
=22	=22
8a	-ment
8g#	cer-
8g#}	-tain}
{8bn	{Ne
8a	pour-
8g#	-rait
=23	=23
4bn	di-
8a#	-re,
8cc#	ne
8b	pour-
8a#	-rait
=24	=24
4cc#	di-
8bn}	-re,}
8r	.
{8bn	{A
8bn	voir
=25	=25
8bn	tes
8cc#	re-
4dd	-gards
8bn	com-
8g#	-plai-
=26	=26
(4bn	-sants
4a)}	|}
4r	.
=27	=27
{4.dd	{Qui
8fn	creu-
8gn	-sa
8a	les
=28	=28
4a	ri-
8e}	-des}
8r	.
{4a	{des
=29	=29
4g#}	ans}
8r	.
{8dd	{Ou
8cc#	du
8bn	sou-
=30	=30
4bn	-ri-
4a}	-re.}
4r	.
=31	=31
4r	.
4r	.
{8a	{Tu
8a	n'as
=32	=32
8a	pas
8a	con-
4a	-nus,
8a	me^-
8a	-me un
=33	=33
4b-}	jour,}
8r	.
{8b-	{Le
8b-	plaie
8cc	ar-
=34	=34
4b-	-den-
8a	-te,
8a	la
8a	plaie
8b-	ar-
=35	=35
4a	-den-
8g}	-te}
8r	.
{8g	{d'un
8a	a-
=36	=36
4f}	-mour}
{4dd	{Mis
8a	en
8f	ri-
=37	=37
2f	-se/-
4e}	-e!}
=38	=38
4r	.
4r	.
{8a	{Ou
8g	si
=39	=39
8f#	tu
8cc	l'as
4cc	eue
8b-	a\
8a	vingt
=40	=40
[4b-	ans,
8b-]}	|}
8r	.
{4dd	{Du
=41	=41
(4dd	moins,
8cc#)}	|}
8r	.
{4ee	{L'as~
=42	=42
8dd	~tu
8ccn	de-
8b-	-puis
8a	long-
8g	-temps
8f	ci-
=43	=43
8e	-ca-
8a	-tri-
2bn	-se/-
=44	=44
4a}	-e!}
4r	.
4r	.
=45	=45
4r	.
2r	.
=46	=46
{4.dd	{O^
8f	viel-
[4f	-lard!
=47	=47
8f]}	|}
8r	.
{8dd	{que
8cc	je
8b-	don-
8a	-ne-
=48	=48
(4a	-rais
8g)}	|}
{8dd	{Mes
8cc	che-
8b-	-veux
=49	=49
(4b-	noirs
8a)	|
8ee-	et
8dd	mon
8cc	teint
=50	=50
(4cc	frais,
8b-)}	|}
{8ff	{Et
8een	ma
8dd	jeu-
=51	=51
4dd	-nes-
8cc#}	-se}
8r	.
{8cc#	{Pour
8ee	m'e^-
=52	=52
8ee	-tre ac-
8dd	-quit-
4cc#	-te/
8cc#	de
8bn	souf-
=53	=53
[4a	-frir!
8a]}	|}
4r	.
8r	.
=54	=54
{4f#	{Et,
4.a	com-
8dd	-me
=55	=55
(4cc#	toi,
4bn)}	|}
4r	.
=56	=56
{4e	{pre\s
4.g	de
8cc#	mou-
=57	=57
(4bn	-rir,
4a)}	|}
4r	.
=58	=58
{2dd	{Boire
(12g#	en
12a)	|
12bn	li-
=59	=59
(4a	-es-
2g#)	|
=60	=60
4cc#}	-se!}
4r	.
4r	.
=61	=61
{2dd	{Boire
(12e	en
12f#)	|
12g	li-
=62	=62
(4f#	-es-
2e)	|
=63	=63
4d}	-se!}
4r	.
4r	.
*-	*-
